app/assets/images/icons/help-solid.svg

<?xml version="1.0" encoding="UTF-8" standalone="no"?>
<svg width="30px" height="30px" viewBox="0 0 30 30" version="1.1" xmlns="http://www.w3.org/2000/svg" xmlns:xlink="http://www.w3.org/1999/xlink">
    <!-- Generator: Sketch 3.7.2 (28276) - http://www.bohemiancoding.com/sketch -->
    <title>help-solid</title>
    <desc>Created with Sketch.</desc>
    <defs></defs>
    <g id="Icons" stroke="none" stroke-width="1" fill="none" fill-rule="evenodd">
        <g id="help-solid" fill="#050505">
            <path d="M15,30 C23.2842712,30 30,23.2842712 30,15 C30,6.71572875 23.2842712,0 15,0 C6.71572875,0 0,6.71572875 0,15 C0,23.2842712 6.71572875,30 15,30 Z M13.5,16.5001649 L13.5,18.4998351 C13.5,19.3256778 14.1715729,20 15,20 C15.8342028,20 16.5,19.3283533 16.5,18.4998351 L16.5,17.8109738 C19.0878408,17.1449096 21,14.7957591 21,12 C21,8.6862915 18.3137085,6 15,6 C11.6862915,6 9,8.6862915 9,12 C9,12.8284271 9.67157288,13.5 10.5,13.5 C11.3284271,13.5 12,12.8284271 12,12 C12,10.3431458 13.3431458,9 15,9 C16.6568542,9 18,10.3431458 18,12 C18,13.6568542 16.6568542,15 15,15 C14.1657972,15 13.5,15.6716467 13.5,16.5001649 Z M15,24 C15.8284271,24 16.5,23.3284271 16.5,22.5 C16.5,21.6715729 15.8284271,21 15,21 C14.1715729,21 13.5,21.6715729 13.5,22.5 C13.5,23.3284271 14.1715729,24 15,24 Z" id="Oval-15"></path>
        </g>
    </g>
</svg>

<?xml version="1.0" encoding="UTF-8" standalone="no"?>
<svg width="30" height="30" viewBox="0 0 30 30" xmlns="http://www.w3.org/2000/svg">
  <path d="M15 30c8.284 0 15-6.716 15-15 0-8.284-6.716-15-15-15C6.716 0 0 6.716 0 15c0 8.284 6.716 15 15 15zm-1.5-13.5v2c0 .826.672 1.5 1.5 1.5.834 0 1.5-.672 1.5-1.5v-.689A6 6 0 1 0 9 12a1.5 1.5 0 0 0 3 0 3 3 0 1 1 3 3c-.834 0-1.5.672-1.5 1.5zM15 24a1.5 1.5 0 1 0 0-3 1.5 1.5 0 0 0 0 3z" fill="#050505" fill-rule="evenodd"/>
</svg>
